svg/timer_outline.svg

<svg xmlns="http://www.w3.org/2000/svg" viewBox="0 0 24 24"><path d="M12 20a7 7 0 0 1-7-7 7 7 0 0 1 7-7 7 7 0 0 1 7 7 7 7 0 0 1-7 7m7.03-12.61 1.42-1.42c-.45-.51-.9-.97-1.41-1.41L17.62 6c-1.55-1.26-3.5-2-5.62-2a9 9 0 0 0-9 9 9 9 0 0 0 9 9c5 0 9-4.03 9-9 0-2.12-.74-4.07-1.97-5.61M11 14h2V8h-2m4-7H9v2h6z"/></svg>

<?xml version="1.0" encoding="UTF-8"?><!DOCTYPE svg PUBLIC "-//W3C//DTD SVG 1.1//EN" "http://www.w3.org/Graphics/SVG/1.1/DTD/svg11.dtd"><svg xmlns="http://www.w3.org/2000/svg" xmlns:xlink="http://www.w3.org/1999/xlink" version="1.1" id="mdi-timer-outline" width="24" height="24" viewBox="0 0 24 24"><path d="M12,20A7,7 0 0,1 5,13A7,7 0 0,1 12,6A7,7 0 0,1 19,13A7,7 0 0,1 12,20M19.03,7.39L20.45,5.97C20,5.46 19.55,5 19.04,4.56L17.62,6C16.07,4.74 14.12,4 12,4A9,9 0 0,0 3,13A9,9 0 0,0 12,22C17,22 21,17.97 21,13C21,10.88 20.26,8.93 19.03,7.39M11,14H13V8H11M15,1H9V3H15V1Z" /></svg>
